icons/file/icon_format-unknown_xl_red.svg

<svg width="36" height="36" viewBox="0 0 36 36" fill="none" xmlns="http://www.w3.org/2000/svg">
<path fill-rule="evenodd" clip-rule="evenodd" d="M9.5581 34C8.36504 33.9987 7.22121 33.5241 6.37759 32.6805C5.53396 31.8369 5.05943 30.6931 5.05811 29.5V10.294L13.2921 2H26.5581C29.0391 2 31.0581 4.019 31.0581 6.5V28H30.0581V6.5C30.0581 4.57 28.4881 3 26.5581 3H13.7081L6.05811 10.706V29.5C6.05811 31.43 7.62811 33 9.5581 33H26.5581C28.4881 33 30.0581 31.43 30.0581 29.5V28H31.0581V29.5C31.0581 31.981 29.0391 34 26.5581 34H9.5581Z" fill="#EF3124"/>
<path d="M18.218 23C17.381 23 16.718 23.647 16.718 24.5C16.718 25.337 17.381 26 18.218 26C19.071 26 19.718 25.337 19.718 24.5C19.718 23.647 19.071 23 18.218 23ZM18.446 11.276C20.175 11.276 21.389 12.38 21.389 13.903C21.389 15.061 20.863 15.811 19.52 16.701C18.016 17.677 17.393 18.577 17.404 19.992V21H18.833V20.196C18.833 19.006 19.23 18.395 20.638 17.494C22.11 16.551 22.905 15.425 22.905 13.838C22.905 11.651 21.09 10 18.501 10C15.73 10 14.129 11.769 14 14.042H15.396C15.534 12.348 16.727 11.276 18.446 11.276Z" fill="#EF3124"/>
</svg>

<svg width="36" height="36" fill="none" xmlns="http://www.w3.org/2000/svg"><path fill-rule="evenodd" clip-rule="evenodd" d="M9.558 34a4.505 4.505 0 01-4.5-4.5V10.294L13.292 2h13.266c2.481 0 4.5 2.019 4.5 4.5V28h-1V6.5c0-1.93-1.57-3.5-3.5-3.5h-12.85l-7.65 7.706V29.5c0 1.93 1.57 3.5 3.5 3.5h17c1.93 0 3.5-1.57 3.5-3.5V28h1v1.5c0 2.481-2.019 4.5-4.5 4.5h-17z" fill="#D5352B"/><path d="M18.218 23c-.837 0-1.5.647-1.5 1.5 0 .837.663 1.5 1.5 1.5.853 0 1.5-.663 1.5-1.5 0-.853-.647-1.5-1.5-1.5zm.228-11.724c1.729 0 2.943 1.104 2.943 2.627 0 1.158-.526 1.908-1.869 2.798-1.504.976-2.127 1.876-2.116 3.291V21h1.429v-.804c0-1.19.397-1.801 1.805-2.702 1.472-.943 2.267-2.069 2.267-3.656 0-2.187-1.815-3.838-4.404-3.838-2.771 0-4.372 1.769-4.501 4.042h1.396c.138-1.694 1.331-2.766 3.05-2.766z" fill="#D5352B"/></svg>
